svg/misc/necktie.svg

<svg width="160" height="512" viewBox="0 0 160 512" fill="none" xmlns="http://www.w3.org/2000/svg">
<path d="M32 32H128C139 32.1667 147.458 35.75 153.375 42.75C159.292 49.75 161 56.8333 158.5 64L128 112C127.667 112.5 127.25 113.25 126.75 114.25C124.75 117.583 122.958 120.083 121.375 121.75C119.792 123.417 117 124.833 113 126C109 127.167 103.333 127.833 96 128H64C56.6667 127.833 51 127.167 47 126C43 124.833 40.2083 123.417 38.625 121.75C37.0417 120.083 35.25 117.583 33.25 114.25C32.75 113.25 32.3333 112.5 32 112L1.5 64C-1 56.8333 0.708328 49.75 6.625 42.75C12.5417 35.75 21 32.1667 32 32Z" fill="black"/>
<path d="M56.875 144H103.125L105.625 144.125C107.292 144.208 108.083 144.417 108 144.75C107.917 145.083 108.458 145.542 109.625 146.125C110.792 146.708 111.292 147.417 111.125 148.25C110.958 149.083 111.25 150.167 112 151.5L160 400L80 480L0 400L48 151.5C48.75 150.167 49.0417 149.083 48.875 148.25C48.7083 147.417 49.2083 146.708 50.375 146.125C51.5417 145.542 52.0833 145.083 52 144.75C51.9167 144.417 52.7083 144.208 54.375 144.125L56.875 144Z" fill="black"/>
</svg>

<svg width="160" height="512" viewBox="0 0 160 512" version="1.1" xmlns="http://www.w3.org/2000/svg"><path fill="currentColor" d="M56.875,144l46.25,0l2.5,0.125c1.667,0.083 2.458,0.292 2.375,0.625c-0.083,0.333 0.458,0.792 1.625,1.375c1.167,0.583 1.667,1.292 1.5,2.125c-0.167,0.833 0.125,1.917 0.875,3.25l48,248.5l-80,80l-80,-80l48,-248.5c0.75,-1.333 1.042,-2.417 0.875,-3.25c-0.167,-0.833 0.333,-1.542 1.5,-2.125c1.167,-0.583 1.708,-1.042 1.625,-1.375c-0.083,-0.333 0.708,-0.542 2.375,-0.625l2.5,-0.125Zm39.125,-16l-32,0c-7.333,-0.167 -13,-0.833 -17,-2c-4,-1.167 -6.792,-2.583 -8.375,-4.25c-1.583,-1.667 -3.375,-4.167 -5.375,-7.5c-0.5,-1 -0.917,-1.75 -1.25,-2.25l-30.5,-48c-2.5,-7.167 -0.792,-14.25 5.125,-21.25c5.917,-7 14.375,-10.583 25.375,-10.75l96,0c11,0.167 19.458,3.75 25.375,10.75c5.917,7 7.625,14.083 5.125,21.25l-30.5,48c-0.333,0.5 -0.75,1.25 -1.25,2.25c-2,3.333 -3.792,5.833 -5.375,7.5c-1.583,1.667 -4.375,3.083 -8.375,4.25c-3.982,1.162 -9.617,1.827 -17,2Z"></path></svg>
